X: 1253
T: Annie O'Neill
M:C|
L:1/8
R:Reel
B:O'Neill's 1253
N:Collected by Cronin
Z:Transcribed by Trish O'Neil
K:G
D2|GABd cAFB|AGGF GABc|dcAG FGAc|BGAF GFED|
GABd cAFB|AGGF G2g2|fdcA FGAB|AGGFG2||
d2|gage fgfd|cBcA dcdf|gage fgfd|cBcA defa|
gage fgfd|efed cdeg|fdcA FGAB|AGGFG2||


